X:281
T:Kilmovee Jig, The
R:jig
H:See also #269
Z:id:hn-jig-281
M:6/8
K:G
~G3 ~B3|GAB AGE|DEG Bdg|~e3 dBA|
~G3 ~B3|ded BGE|DEG Bdg|1 edB G2D:|2 edB GBd||
|:~g3 dBG|AGE GED|GBd g2f|eag fed|
~B3 dBA|GBG AGE|DEG Bdg|1 edB GBd:|2 edB G2D||

